!!!OTL: LOT UNS SINGE DAT NIGGE LIED
!!!ARE: Europa, Mitteleuropa, Deutschland, Westfalen, Kreis Iserlohn
!!!SCT: E1114
!!!YEM: Copyright 1995, estate of Helmut Schaffrath.
**kern
*ICvox
*Ivox
*M4/4
*k[f#]
*G:
=1
{4d
4d
4d
4d
=2
4d
4b
2g}
=3
{4d
4cc
2a
=4
4dd
4dd
2b}
=5
{4d
4d
4d
4d
=6
4d
4b
2g}
=7
{4a
4g
8f#
8f#
8e
8e
=8
2.d
4r}
=9
{4d
4cc
2cc
=10
4b
4g
2g}
=11
{4a
4f#
8e
8e
8f#
8f#
=12
4g
4b
2dd}
=13
{4d
4cc
2cc
=14
4b
4g
2g}
=15
{4a
4f#
8e
8e
8f#
8f#
=16
2.g
4r}
==
!!!AGN: Luegen - Lied, Maerchen
!!!ONB: ESAC (Essen Associative Code) Database: ERK3
!!!AMT: simple quadruple
!!!AIN: vox
!!!EED: Helmut Schaffrath
!!!EEV: 1.0
*-
